X:1
M:6/8
L:1/8
K:G
|: d2d d2e | =fed cBA | c2c c2d | edc BAG | gdB gdB | gdB gdB | AcB AGF | G3 [G,3G3] :|

